X:1
T:Hormai la notte
T:Hormai la notte
T:Claudio Saracini
T:Aria
T:Source : Le seconde Musische per cantar e sonar---Venetia---A.Vincenti---1620. Editor : André Vierendeels (24/11/15).
T:Notes : Original clefs : C1, F4 Editorial accidentals above the staff Original note values have been halved  
T:#
C:Claudio Saracini
%%score 1 2
L:1/8
Q:1/4=80
M:3/2
K:C
V:1 treble nm="Soprano" snm="S"
V:2 bass nm="BC" snm="BC"
V:1
 GABc d4 c2 B2 | A3 A G/F/G/A/ B/A/B/c/ A4 | edcB A4 fe dc | d4 d2 e4 e2 | BABc d4 ^FEFG | %5
w: Hor- * * * * mai la|nott' in gi- * * * * * * * ro,|gui- * * * da'il car- * vi- *|to stel- la- to|ti- * * * * son _ _ _|
w: Tal _ _ _ _ que pien|di de- si- * * * * * * * o,|poi _ _ _ che ve- * * *|der m'è tol- to|l'a- * * * * ma- * * *|
w: E _ _ _ _ qui sfo-|gan- do'il co- * * * * * * * re,|con _ _ _ at- mo- * * *|ni- ci'ac- cen- ti|co- * * * * me _ _ _|
w: Ma _ _ _ _ che dol-|ce'il mo- ri- * * * * * * * re,|fia _ _ _ per cag- * * *|gion si bel- la|s'av- * * * * vien _ _ _|
 A4 B2 c4 A2 | dcBA B2 cB AG A2 | ^F4 GFED ^C3 C | D4 D2 EF GE c2 | Bc dc B2 A4 A2 | ^cBcd e6 c2 | %11
w: _ s'o- gni mar-|ti- * * * ro trag- * * * *|ge dal _ _ _ cor tur-|ba- to, o- * * * gni|mor- * tal' _ hi pa- ce|io _ _ _ _ no|
w: * to'i- do- lo|mi- * * * o, for- * * * *|se nel _ _ _ son- no'in-|vol- vo, ven- * * * go'à|ve- * der _ al- me- no,|la _ _ _ _ be-|
w: _ l'Au- gel che|mo- * * * re, can- * * * *|tan- do'i _ _ _ suoi tor-|men- ti, di- * * * co|ch'in _ ter- * ra ma- i,|non _ _ _ _ heb-|
w: _ ch'el la mi|mi- * * * ra, fra _ _ _ _|che l'al- * * * ma si|fuel- la, fur _ _ _ ch'io|ve- * da'i _ bel- l'oc- chi,|mor- * * * * te|
 d4 A6 ^G2 | A4 BAGF EDEF | G6 B2 A4 | G12 :| %15
w: cui sem- pr'A-|mor con- * * * su- * * *|ma e sfa-|ce.|
w: a- ta mag-|gio che'l _ _ _ ser- * * *|ba in se-|no.|
w: be'al- cun tan-|ti a- * * * mo- * * *|ro- si gua-|i.|
w: m'af- fal- ga'e|que- sto _ _ _ spir- * * *|* to scoc-|chi.|
V:2
 G,,8 C,2 E,2 | C,2 D,2 G,,4 D,4 | C,4 F,,4 D,,4 | G,,4 G,,2 C,4 C,2 | G,,8 D,4- | %5
 D,4 G,2 C,4 D,2 | G,,4 G,,2 F,,4 F,,2 | D,4 G,,4 A,,3 A,, | D,4 D,2 C,4 C,2 | %9
"^#""^#" E,4 E,2 A,,4 A,,2 | A,,8 A,,4 | D,8 E,4 | A,,4 G,,4 C,4- | C,4 B,,4 D,4 | G,,12 :| %15

